; generated by PrusaSlicer 2.5.0+win64 on 2023-06-25 at 11:56:17 UTC


;
;
; 

; external perimeters extrusion width = 0.45mm
; perimeters extrusion width = 0.45mm
; infill extrusion width = 0.45mm
; solid infill extrusion width = 0.45mm
; top infill extrusion width = 0.40mm
; first layer extrusion width = 0.42mm

M73 P0 R100
M73 Q0 S101
M201 X1000 Y1000 Z200 E5000 ; sets maximum accelerations, mm/sec^2
M203 X200 Y200 Z12 E120 ; sets maximum feedrates, mm / sec
M204 P1250 R1250 T1250 ; sets acceleration (P, T) and retract acceleration (R), mm/sec^2
M205 X8.00 Y8.00 Z0.40 E4.50 ; sets the jerk limits, mm/sec
M205 S0 T0 ; sets the minimum extruding and travel feed rate, mm/sec
M107
;TYPE:Custom
M862.3 P "MK3S" ; printer model check
M862.1 P0.4 ; nozzle diameter check
M115 U3.12.2 ; tell printer latest fw version
G90 ; use absolute coordinates
M83 ; extruder relative mode
M104 S215 ; set extruder temp
M140 S60 ; set bed temp
M190 S60 ; wait for bed temp
M109 S215 ; wait for extruder temp
G28 W ; home all without mesh bed level
G80 ; mesh bed leveling

G1 Z0.2 F720
G1 Y-3 F1000 ; go outside print area
G92 E0
G1 X60 E9 F1000 ; intro line
G1 X100 E12.5 F1000 ; intro line

G92 E0
M221 S95

; Don't change E values below. Excessive value can damage the printer.

M907 E538 ; set extruder motor current
G21 ; set units to millimeters
G90 ; use absolute coordinates
M83 ; use relative distances for extrusion
M900 K0.05 ; Filament gcode LA 1.5
M900 K30 ; Filament gcode LA 1.0
M107
;LAYER_CHANGE
;Z:0.2
;HEIGHT:0.2
;BEFORE_LAYER_CHANGE
G92 E0.0
;0.2


G1 E-.8 F2100
G1 Z.4 F720
;AFTER_LAYER_CHANGE
;0.2
G1 X109.715 Y41.193 F10800
G1 Z.2 F720
G1 E.8 F2100
M204 S800
;TYPE:Skirt/Brim
;WIDTH:0.42
G1 F1200
G1 X110.76 Y40.317 E.04278
G1 X111.7 Y40.123 E.03008
G1 X137.7 Y40.123 E.81521
G1 X139.007 Y40.515 E.04278
G1 X139.883 Y41.56 E.04278
G1 X140.077 Y42.5 E.03008
G1 X140.077 Y167.5 E3.91929
G1 X139.685 Y168.807 E.04278
M73 Q0 S100
G1 X138.64 Y169.683 E.04278
G1 X137.7 Y169.877 E.03008
G1 X111.7 Y169.877 E.81521
G1 X110.393 Y169.485 E.04278
M73 P0 R99
G1 X109.517 Y168.44 E.04278
G1 X109.323 Y167.5 E.03008
G1 X109.323 Y42.5 E3.91929
G1 X109.697 Y41.25 E.0409
M204 S1000
; printing object avalanche box w hole v3.stl id:0 copy 0
;WIPE_START
G1 F8640
G1 X110.76 Y40.317 E-.32671
G1 X111.7 Y40.123 E-.22155
G1 X112.617 Y40.123 E-.21174
;WIPE_END
G1 E-.04 F2100
G1 Z.6 F720
G1 X136.913 Y166.713 F10800
G1 Z.2 F720
G1 E.8 F2100
M204 S800
;TYPE:Perimeter
;WIDTH:0.419999
G1 F1200
G1 X112.487 Y166.713 E.76585
G1 X112.487 Y43.287 E3.86992
G1 X136.913 Y43.287 E.76585
G1 X136.913 Y166.653 E3.86804
M204 S1000
G1 X137.29 Y167.09 F10800
M204 S800
;TYPE:External perimeter
G1 F1200
G1 X112.11 Y167.09 E.7895
G1 X112.11 Y42.91 E3.89357
G1 X137.29 Y42.91 E.7895
G1 X137.29 Y167.03 E3.89169
M204 S1000
G1 X136.931 Y166.914 F10800
;WIPE_START
G1 F8640
G1 X133.999 Y167.038 E-.76
;WIPE_END
G1 E-.04 F2100
G1 Z.6 F720
G1 X136.036 Y43.4 F10800
G1 Z.2 F720
G1 E.8 F2100
M204 S800
;TYPE:Solid infill
;WIDTH:0.420747
G1 F1200
G1 X136.63 Y43.994 E.0264
G1 X136.63 Y44.529 E.01679
G1 X135.671 Y43.57 E.0426
G1 X135.137 Y43.57 E.01679
G1 X136.63 Y45.063 E.06634
G1 X136.63 Y45.597 E.01679
G1 X134.603 Y43.57 E.09008
G1 X134.068 Y43.57 E.01679
G1 X136.63 Y46.132 E.11382
G1 X136.63 Y46.666 E.01679
G1 X133.534 Y43.57 E.13756
G1 X133 Y43.57 E.01679
G1 X136.63 Y47.2 E.1613
G1 X136.63 Y47.735 E.01679
G1 X132.465 Y43.57 E.18504
G1 X131.931 Y43.57 E.01679
G1 X136.63 Y48.269 E.20878
G1 X136.63 Y48.803 E.01679
G1 X131.397 Y43.57 E.23252
G1 X130.862 Y43.57 E.01679
G1 X136.63 Y49.338 E.25626
G1 X136.63 Y49.872 E.01679
G1 X130.328 Y43.57 E.28
G1 X129.794 Y43.57 E.01679
G1 X136.63 Y50.406 E.30374
G1 X136.63 Y50.941 E.01679
G1 X129.259 Y43.57 E.32748
G1 X128.725 Y43.57 E.01679
G1 X136.63 Y51.475 E.35122
G1 X136.63 Y52.009 E.01679
M73 Q1 S100
G1 X128.191 Y43.57 E.37496
G1 X127.656 Y43.57 E.01679
M73 P1 R99
G1 X136.63 Y52.544 E.3987
G1 X136.63 Y53.078 E.01679
G1 X127.122 Y43.57 E.42244
G1 X126.588 Y43.57 E.01679
G1 X136.63 Y53.612 E.44618
G1 X136.63 Y54.147 E.01679
G1 X126.053 Y43.57 E.46992
G1 X125.519 Y43.57 E.01679
G1 X136.63 Y54.681 E.49366
G1 X136.63 Y55.215 E.01679
G1 X124.985 Y43.57 E.5174
G1 X124.45 Y43.57 E.01679
G1 X136.63 Y55.75 E.54114
G1 X136.63 Y56.284 E.01679
G1 X123.916 Y43.57 E.56488
G1 X123.382 Y43.57 E.01679
G1 X136.63 Y56.818 E.58862
G1 X136.63 Y57.353 E.01679
G1 X122.847 Y43.57 E.61236
G1 X122.313 Y43.57 E.01679
G1 X136.63 Y57.887 E.6361
G1 X136.63 Y58.421 E.01679
M73 Q1 S99
G1 X121.779 Y43.57 E.65984
G1 X121.244 Y43.57 E.01679
G1 X136.63 Y58.956 E.68358
G1 X136.63 Y59.49 E.01679
G1 X120.71 Y43.57 E.70732
G1 X120.176 Y43.57 E.01679
G1 X136.63 Y60.024 E.73106
G1 X136.63 Y60.559 E.01679
G1 X119.641 Y43.57 E.7548
G1 X119.107 Y43.57 E.01679
M73 P1 R98
G1 X136.63 Y61.093 E.77854
G1 X136.63 Y61.627 E.01679
G1 X118.573 Y43.57 E.80228
G1 X118.038 Y43.57 E.01679
G1 X136.63 Y62.162 E.82602
G1 X136.63 Y62.696 E.01679
G1 X117.504 Y43.57 E.84976
G1 X116.97 Y43.57 E.01679
G1 X136.63 Y63.23 E.8735
G1 X136.63 Y63.764 E.01679
G1 X116.436 Y43.57 E.89724
G1 X115.901 Y43.57 E.01679
G1 X136.63 Y64.299 E.92098
G1 X136.63 Y64.833 E.01679
G1 X115.367 Y43.57 E.94472
G1 X114.833 Y43.57 E.01679
G1 X136.63 Y65.367 E.96846
G1 X136.63 Y65.902 E.01679
G1 X114.298 Y43.57 E.9922
G1 X113.764 Y43.57 E.01679
G1 X136.63 Y66.436 E1.01594
G1 X136.63 Y66.97 E.01679
G1 X113.23 Y43.57 E1.03968
G1 X112.77 Y43.57 E.01444
G1 X112.77 Y43.645 E.00235
G1 X136.63 Y67.505 E1.0601
G1 X136.63 Y68.039 E.01679
G1 X112.77 Y44.179 E1.0601
G1 X112.77 Y44.713 E.01679
G1 X136.63 Y68.573 E1.0601
G1 X136.63 Y69.108 E.01679
G1 X112.77 Y45.248 E1.0601
G1 X112.77 Y45.782 E.01679
G1 X136.63 Y69.642 E1.0601
G1 X136.63 Y70.176 E.01679
G1 X112.77 Y46.316 E1.0601
G1 X112.77 Y46.851 E.01679
G1 X136.63 Y70.711 E1.0601
G1 X136.63 Y71.245 E.01679
G1 X112.77 Y47.385 E1.0601
G1 X112.77 Y47.919 E.01679
G1 X136.63 Y71.779 E1.0601
G1 X136.63 Y72.314 E.01679
G1 X112.77 Y48.453 E1.0601
G1 X112.77 Y48.988 E.01679
G1 X136.63 Y72.848 E1.0601
G1 X136.63 Y73.382 E.01679
G1 X112.77 Y49.522 E1.0601
G1 X112.77 Y50.056 E.01679
G1 X136.63 Y73.917 E1.0601
G1 X136.63 Y74.451 E.01679
G1 X112.77 Y50.591 E1.0601
G1 X112.77 Y51.125 E.01679
G1 X136.63 Y74.985 E1.0601
G1 X136.63 Y75.52 E.01679
G1 X112.77 Y51.659 E1.0601
G1 X112.77 Y52.194 E.01679
M73 P2 R98
M73 Q2 S99
G1 X136.63 Y76.054 E1.0601
G1 X136.63 Y76.588 E.01679
G1 X112.77 Y52.728 E1.0601
G1 X112.77 Y53.262 E.01679
G1 X136.63 Y77.123 E1.0601
G1 X136.63 Y77.657 E.01679
G1 X112.77 Y53.797 E1.0601
G1 X112.77 Y54.331 E.01679
G1 X136.63 Y78.191 E1.0601
G1 X136.63 Y78.726 E.01679
M73 Q2 S98
G1 X112.77 Y54.865 E1.0601
G1 X112.77 Y55.4 E.01679
G1 X136.63 Y79.26 E1.0601
G1 X136.63 Y79.794 E.01679
G1 X112.77 Y55.934 E1.0601
G1 X112.77 Y56.468 E.01679
G1 X136.63 Y80.329 E1.0601
G1 X136.63 Y80.863 E.01679
M73 P2 R97
G1 X112.77 Y57.003 E1.0601
G1 X112.77 Y57.537 E.01679
G1 X136.63 Y81.397 E1.0601
G1 X136.63 Y81.932 E.01679
G1 X112.77 Y58.071 E1.0601
G1 X112.77 Y58.606 E.01679
G1 X136.63 Y82.466 E1.0601
G1 X136.63 Y83 E.01679
G1 X112.77 Y59.14 E1.0601
G1 X112.77 Y59.674 E.01679
G1 X136.63 Y83.535 E1.0601
G1 X136.63 Y84.069 E.01679
G1 X112.77 Y60.209 E1.0601
G1 X112.77 Y60.743 E.01679
G1 X136.63 Y84.603 E1.0601
G1 X136.63 Y85.138 E.01679
G1 X112.77 Y61.277 E1.0601
G1 X112.77 Y61.812 E.01679
G1 X136.63 Y85.672 E1.0601
G1 X136.63 Y86.206 E.01679
G1 X112.77 Y62.346 E1.0601
G1 X112.77 Y62.88 E.01679
G1 X136.63 Y86.741 E1.0601
G1 X136.63 Y87.275 E.01679
G1 X112.77 Y63.415 E1.0601
G1 X112.77 Y63.949 E.01679
G1 X136.63 Y87.809 E1.0601
G1 X136.63 Y88.344 E.01679
G1 X112.77 Y64.483 E1.0601
G1 X112.77 Y65.018 E.01679
G1 X136.63 Y88.878 E1.0601
G1 X136.63 Y89.412 E.01679
G1 X112.77 Y65.552 E1.0601
G1 X112.77 Y66.086 E.01679
G1 X136.63 Y89.947 E1.0601
G1 X136.63 Y90.481 E.01679
G1 X112.77 Y66.621 E1.0601
G1 X112.77 Y67.155 E.01679
G1 X136.63 Y91.015 E1.0601
G1 X136.63 Y91.55 E.01679
G1 X112.77 Y67.689 E1.0601
G1 X112.77 Y68.224 E.01679
G1 X136.63 Y92.084 E1.0601
G1 X136.63 Y92.618 E.01679
G1 X112.77 Y68.758 E1.0601
G1 X112.77 Y69.292 E.01679
G1 X136.63 Y93.153 E1.0601
G1 X136.63 Y93.687 E.01679
G1 X112.77 Y69.827 E1.0601
G1 X112.77 Y70.361 E.01679
G1 X136.63 Y94.221 E1.0601
G1 X136.63 Y94.756 E.01679
M73 P3 R97
M73 Q3 S98
G1 X112.77 Y70.895 E1.0601
G1 X112.77 Y71.43 E.01679
G1 X136.63 Y95.29 E1.0601
G1 X136.63 Y95.824 E.01679
G1 X112.77 Y71.964 E1.0601
G1 X112.77 Y72.498 E.01679
G1 X136.63 Y96.359 E1.0601
G1 X136.63 Y96.893 E.01679
G1 X112.77 Y73.033 E1.0601
G1 X112.77 Y73.567 E.01679
M73 Q3 S97
G1 X136.63 Y97.427 E1.0601
G1 X136.63 Y97.961 E.01679
G1 X112.77 Y74.101 E1.0601
G1 X112.77 Y74.636 E.01679
G1 X136.63 Y98.496 E1.0601
G1 X136.63 Y99.03 E.01679
M73 P3 R96
G1 X112.77 Y75.17 E1.0601
G1 X112.77 Y75.704 E.01679
G1 X136.63 Y99.564 E1.0601
G1 X136.63 Y100.099 E.01679
G1 X112.77 Y76.239 E1.0601
G1 X112.77 Y76.773 E.01679
G1 X136.63 Y100.633 E1.0601
G1 X136.63 Y101.167 E.01679
G1 X112.77 Y77.307 E1.0601
G1 X112.77 Y77.842 E.01679
G1 X136.63 Y101.702 E1.0601
G1 X136.63 Y102.236 E.01679
G1 X112.77 Y78.376 E1.0601
G1 X112.77 Y78.91 E.01679
G1 X136.63 Y102.77 E1.0601
G1 X136.63 Y103.305 E.01679
G1 X112.77 Y79.445 E1.0601
G1 X112.77 Y79.979 E.01679
G1 X136.63 Y103.839 E1.0601
G1 X136.63 Y104.373 E.01679
G1 X112.77 Y80.513 E1.0601
G1 X112.77 Y81.048 E.01679
G1 X136.63 Y104.908 E1.0601
G1 X136.63 Y105.442 E.01679
G1 X112.77 Y81.582 E1.0601
G1 X112.77 Y82.116 E.01679
G1 X136.63 Y105.976 E1.0601
G1 X136.63 Y106.511 E.01679
G1 X112.77 Y82.65 E1.0601
G1 X112.77 Y83.185 E.01679
G1 X136.63 Y107.045 E1.0601
G1 X136.63 Y107.579 E.01679
G1 X112.77 Y83.719 E1.0601
G1 X112.77 Y84.253 E.01679
G1 X136.63 Y108.114 E1.0601
G1 X136.63 Y108.648 E.01679
G1 X112.77 Y84.788 E1.0601
G1 X112.77 Y85.322 E.01679
G1 X136.63 Y109.182 E1.0601
G1 X136.63 Y109.717 E.01679
G1 X112.77 Y85.856 E1.0601
G1 X112.77 Y86.391 E.01679
G1 X136.63 Y110.251 E1.0601
G1 X136.63 Y110.785 E.01679
G1 X112.77 Y86.925 E1.0601
G1 X112.77 Y87.459 E.01679
G1 X136.63 Y111.32 E1.0601
G1 X136.63 Y111.854 E.01679
G1 X112.77 Y87.994 E1.0601
G1 X112.77 Y88.528 E.01679
G1 X136.63 Y112.388 E1.0601
G1 X136.63 Y112.923 E.01679
G1 X112.77 Y89.062 E1.0601
G1 X112.77 Y89.597 E.01679
M73 P4 R96
M73 Q4 S97
G1 X136.63 Y113.457 E1.0601
G1 X136.63 Y113.991 E.01679
G1 X112.77 Y90.131 E1.0601
G1 X112.77 Y90.665 E.01679
G1 X136.63 Y114.526 E1.0601
G1 X136.63 Y115.06 E.01679
G1 X112.77 Y91.2 E1.0601
G1 X112.77 Y91.734 E.01679
M73 Q4 S96
G1 X136.63 Y115.594 E1.0601
G1 X136.63 Y116.129 E.01679
G1 X112.77 Y92.268 E1.0601
G1 X112.77 Y92.803 E.01679
G1 X136.63 Y116.663 E1.0601
G1 X136.63 Y117.197 E.01679
G1 X112.77 Y93.337 E1.0601
G1 X112.77 Y93.871 E.01679
M73 P4 R95
G1 X136.63 Y117.732 E1.0601
G1 X136.63 Y118.266 E.01679
G1 X112.77 Y94.406 E1.0601
G1 X112.77 Y94.94 E.01679
G1 X136.63 Y118.8 E1.0601
G1 X136.63 Y119.335 E.01679
G1 X112.77 Y95.474 E1.0601
G1 X112.77 Y96.009 E.01679
G1 X136.63 Y119.869 E1.0601
G1 X136.63 Y120.403 E.01679
G1 X112.77 Y96.543 E1.0601
G1 X112.77 Y97.077 E.01679
G1 X136.63 Y120.938 E1.0601
G1 X136.63 Y121.472 E.01679
G1 X112.77 Y97.612 E1.0601
G1 X112.77 Y98.146 E.01679
G1 X136.63 Y122.006 E1.0601
G1 X136.63 Y122.541 E.01679
G1 X112.77 Y98.68 E1.0601
G1 X112.77 Y99.215 E.01679
G1 X136.63 Y123.075 E1.0601
G1 X136.63 Y123.609 E.01679
G1 X112.77 Y99.749 E1.0601
G1 X112.77 Y100.283 E.01679
G1 X136.63 Y124.144 E1.0601
G1 X136.63 Y124.678 E.01679
G1 X112.77 Y100.818 E1.0601
G1 X112.77 Y101.352 E.01679
G1 X136.63 Y125.212 E1.0601
G1 X136.63 Y125.747 E.01679
G1 X112.77 Y101.886 E1.0601
G1 X112.77 Y102.421 E.01679
G1 X136.63 Y126.281 E1.0601
G1 X136.63 Y126.815 E.01679
G1 X112.77 Y102.955 E1.0601
G1 X112.77 Y103.489 E.01679
G1 X136.63 Y127.35 E1.0601
G1 X136.63 Y127.884 E.01679
G1 X112.77 Y104.024 E1.0601
G1 X112.77 Y104.558 E.01679
G1 X136.63 Y128.418 E1.0601
G1 X136.63 Y128.953 E.01679
G1 X112.77 Y105.092 E1.0601
G1 X112.77 Y105.627 E.01679
G1 X136.63 Y129.487 E1.0601
G1 X136.63 Y130.021 E.01679
G1 X112.77 Y106.161 E1.0601
G1 X112.77 Y106.695 E.01679
G1 X136.63 Y130.556 E1.0601
G1 X136.63 Y131.09 E.01679
G1 X112.77 Y107.23 E1.0601
G1 X112.77 Y107.764 E.01679
M73 P5 R95
G1 X136.63 Y131.624 E1.0601
G1 X136.63 Y132.158 E.01679
M73 Q5 S96
G1 X112.77 Y108.298 E1.0601
G1 X112.77 Y108.833 E.01679
G1 X136.63 Y132.693 E1.0601
G1 X136.63 Y133.227 E.01679
G1 X112.77 Y109.367 E1.0601
G1 X112.77 Y109.901 E.01679
G1 X136.63 Y133.761 E1.0601
G1 X136.63 Y134.296 E.01679
M73 Q5 S95
G1 X112.77 Y110.436 E1.0601
G1 X112.77 Y110.97 E.01679
G1 X136.63 Y134.83 E1.0601
G1 X136.63 Y135.364 E.01679
G1 X112.77 Y111.504 E1.0601
G1 X112.77 Y112.039 E.01679
G1 X136.63 Y135.899 E1.0601
G1 X136.63 Y136.433 E.01679
M73 P5 R94
G1 X112.77 Y112.573 E1.0601
G1 X112.77 Y113.107 E.01679
G1 X136.63 Y136.967 E1.0601
G1 X136.63 Y137.502 E.01679
G1 X112.77 Y113.642 E1.0601
G1 X112.77 Y114.176 E.01679
G1 X136.63 Y138.036 E1.0601
G1 X136.63 Y138.57 E.01679
G1 X112.77 Y114.71 E1.0601
G1 X112.77 Y115.245 E.01679
G1 X136.63 Y139.105 E1.0601
G1 X136.63 Y139.639 E.01679
G1 X112.77 Y115.779 E1.0601
G1 X112.77 Y116.313 E.01679
G1 X136.63 Y140.173 E1.0601
G1 X136.63 Y140.708 E.01679
G1 X112.77 Y116.847 E1.0601
G1 X112.77 Y117.382 E.01679
G1 X136.63 Y141.242 E1.0601
G1 X136.63 Y141.776 E.01679
G1 X112.77 Y117.916 E1.0601
G1 X112.77 Y118.45 E.01679
G1 X136.63 Y142.311 E1.0601
G1 X136.63 Y142.845 E.01679
G1 X112.77 Y118.985 E1.0601
G1 X112.77 Y119.519 E.01679
G1 X136.63 Y143.379 E1.0601
G1 X136.63 Y143.914 E.01679
G1 X112.77 Y120.053 E1.0601
G1 X112.77 Y120.588 E.01679
G1 X136.63 Y144.448 E1.0601
G1 X136.63 Y144.982 E.01679
G1 X112.77 Y121.122 E1.0601
G1 X112.77 Y121.656 E.01679
G1 X136.63 Y145.517 E1.0601
G1 X136.63 Y146.051 E.01679
G1 X112.77 Y122.191 E1.0601
G1 X112.77 Y122.725 E.01679
G1 X136.63 Y146.585 E1.0601
G1 X136.63 Y147.12 E.01679
G1 X112.77 Y123.259 E1.0601
G1 X112.77 Y123.794 E.01679
G1 X136.63 Y147.654 E1.0601
G1 X136.63 Y148.188 E.01679
G1 X112.77 Y124.328 E1.0601
G1 X112.77 Y124.862 E.01679
G1 X136.63 Y148.723 E1.0601
G1 X136.63 Y149.257 E.01679
G1 X112.77 Y125.397 E1.0601
G1 X112.77 Y125.931 E.01679
G1 X136.63 Y149.791 E1.0601
G1 X136.63 Y150.326 E.01679
M73 P6 R94
G1 X112.77 Y126.465 E1.0601
G1 X112.77 Y127 E.01679
M73 Q6 S95
G1 X136.63 Y150.86 E1.0601
G1 X136.63 Y151.394 E.01679
G1 X112.77 Y127.534 E1.0601
G1 X112.77 Y128.068 E.01679
G1 X136.63 Y151.929 E1.0601
G1 X136.63 Y152.463 E.01679
G1 X112.77 Y128.603 E1.0601
G1 X112.77 Y129.137 E.01679
M73 Q6 S94
G1 X136.63 Y152.997 E1.0601
G1 X136.63 Y153.532 E.01679
G1 X112.77 Y129.671 E1.0601
G1 X112.77 Y130.206 E.01679
G1 X136.63 Y154.066 E1.0601
G1 X136.63 Y154.6 E.01679
G1 X112.77 Y130.74 E1.0601
G1 X112.77 Y131.274 E.01679
M73 P6 R93
G1 X136.63 Y155.135 E1.0601
G1 X136.63 Y155.669 E.01679
G1 X112.77 Y131.809 E1.0601
G1 X112.77 Y132.343 E.01679
G1 X136.63 Y156.203 E1.0601
G1 X136.63 Y156.738 E.01679
G1 X112.77 Y132.877 E1.0601
G1 X112.77 Y133.412 E.01679
G1 X136.63 Y157.272 E1.0601
G1 X136.63 Y157.806 E.01679
G1 X112.77 Y133.946 E1.0601
G1 X112.77 Y134.48 E.01679
G1 X136.63 Y158.341 E1.0601
G1 X136.63 Y158.875 E.01679
G1 X112.77 Y135.015 E1.0601
G1 X112.77 Y135.549 E.01679
G1 X136.63 Y159.409 E1.0601
G1 X136.63 Y159.944 E.01679
G1 X112.77 Y136.083 E1.0601
G1 X112.77 Y136.618 E.01679
G1 X136.63 Y160.478 E1.0601
G1 X136.63 Y161.012 E.01679
G1 X112.77 Y137.152 E1.0601
G1 X112.77 Y137.686 E.01679
G1 X136.63 Y161.547 E1.0601
G1 X136.63 Y162.081 E.01679
G1 X112.77 Y138.221 E1.0601
G1 X112.77 Y138.755 E.01679
G1 X136.63 Y162.615 E1.0601
G1 X136.63 Y163.15 E.01679
G1 X112.77 Y139.289 E1.0601
G1 X112.77 Y139.824 E.01679
G1 X136.63 Y163.684 E1.0601
G1 X136.63 Y164.218 E.01679
G1 X112.77 Y140.358 E1.0601
G1 X112.77 Y140.892 E.01679
G1 X136.63 Y164.753 E1.0601
G1 X136.63 Y165.287 E.01679
G1 X112.77 Y141.427 E1.0601
G1 X112.77 Y141.961 E.01679
G1 X136.63 Y165.821 E1.0601
G1 X136.63 Y166.355 E.01679
G1 X112.77 Y142.495 E1.0601
G1 X112.77 Y143.03 E.01679
G1 X136.17 Y166.43 E1.03968
G1 X135.636 Y166.43 E.01679
G1 X112.77 Y143.564 E1.01594
G1 X112.77 Y144.098 E.01679
